src/epub/images/titlepage.svg

<?xml version="1.0" encoding="utf-8"?>
<svg xmlns="http://www.w3.org/2000/svg" xmlns:svg="http://www.w3.org/2000/svg" version="1.1" viewBox="0 0 1400 440">
	<title>The titlepage for the Standard Ebooks edition of The Return of Sherlock Holmes, by Arthur Conan Doyle</title>
	<g aria-label="THE RETURN OF">
		<path d="m 291.45394,68.245613 h 18.33918 V 130 h 17.59065 V 68.245613 h 18.33918 V 52.807016 h -54.26901 z"/>
		<path d="m 374.64839,99.029239 h 24.88888 V 130 h 17.59065 V 52.807016 H 399.53727 V 83.590642 H 374.64839 V 52.807016 H 357.05774 V 130 h 17.59065 z"/>
		<path d="M 477.49342,52.807016 H 433.32968 V 130 h 44.16374 v -15.4386 h -26.5731 V 99.029239 h 25.45029 V 83.590642 H 450.92032 V 68.245613 h 26.5731 z"/>
		<path d="M 523.19079,52.807016 V 130 h 17.59064 V 99.497075 L 564.36038,130 h 22.36258 l -26.5731,-31.906433 c 9.45029,-2.994152 15.81286,-10.760234 15.81286,-22.362574 0,-15.157895 -10.8538,-22.923977 -25.16959,-22.923977 z m 17.59064,34.245615 V 66.842104 h 2.05848 c 6.64328,0 14.5965,0.467836 14.5965,10.105263 0,9.637428 -7.95322,10.105264 -14.5965,10.105264 z"/>
		<path d="M 639.42324,52.807016 H 595.2595 V 130 h 44.16374 v -15.4386 h -26.5731 V 99.029239 h 25.4503 V 83.590642 h -25.4503 V 68.245613 h 26.5731 z"/>
		<path d="m 649.67034,68.245613 h 18.33918 V 130 h 17.59065 V 68.245613 h 18.33918 V 52.807016 h -54.26901 z"/>
		<path d="m 774.59576,52.807016 h -17.59065 v 44.63158 c 0,12.912284 -3.92982,16.654974 -12.53801,16.654974 -8.60819,0 -12.53801,-3.74269 -12.53801,-16.654974 v -44.63158 h -17.59064 v 49.777774 c 0,19.08772 10.47953,28.81872 30.12865,28.81872 19.64913,0 30.12866,-9.731 30.12866,-28.81872 z"/>
		<path d="M 789.90132,52.807016 V 130 h 17.59064 V 99.497075 L 831.07091,130 h 22.36257 l -26.5731,-31.906433 c 9.45029,-2.994152 15.81287,-10.760234 15.81287,-22.362574 0,-15.157895 -10.8538,-22.923977 -25.16959,-22.923977 z m 17.59064,34.245615 V 66.842104 h 2.05848 c 6.64327,0 14.59649,0.467836 14.59649,10.105263 0,9.637428 -7.95322,10.105264 -14.59649,10.105264 z"/>
		<path d="m 879.56072,82.093566 h 0.18713 L 910.43791,130 h 17.59064 V 52.807016 h -17.59064 v 47.906434 h -0.18713 L 879.56072,52.807016 H 861.97007 V 130 h 17.59065 z"/>
		<path d="m 971.39547,91.356724 c 0,22.549706 16.09357,40.046786 38.92403,40.046786 22.1754,0 38.8304,-17.49708 38.8304,-40.046786 0,-22.549708 -17.4035,-39.953217 -38.8304,-39.953217 -21.23981,0 -38.92403,17.403509 -38.92403,39.953217 z m 18.99416,0 c 0,-11.508772 6.36257,-23.017544 19.92987,-23.017544 13.6608,0 19.8362,11.508772 19.8362,23.017544 0,11.508776 -5.8012,23.017546 -19.8362,23.017546 -14.40941,0 -19.92987,-11.50877 -19.92987,-23.017546 z"/>
		<path d="m 1106.5431,52.807016 h -44.6316 V 130 h 17.5907 V 99.029239 h 24.9824 V 83.590642 h -24.9824 V 68.245613 h 27.0409 z"/>
	</g>
	<g aria-label="SHERLOCK HOLMES">
		<path d="m 213.13011,151.40351 c -12.44445,0 -25.16959,9.16959 -25.16959,23.57895 0,8.04678 5.4269,15.25146 14.69006,19.83625 9.16959,4.5848 17.40351,7.11111 17.40351,12.72515 0,7.20468 -7.29825,7.57895 -11.13451,7.57895 -8.60818,0 -18.90058,-8.70176 -18.90058,-8.70176 l -8.79532,14.78363 c 0,0 10.94736,10.19883 29.00584,10.19883 15.06433,0 29.09942,-6.45614 29.09942,-24.88889 0,-10.10526 -9.45029,-17.40351 -18.05848,-21.05263 -8.79532,-3.74269 -16.09357,-6.83041 -16.09357,-11.13451 0,-4.21052 3.18129,-6.92397 9.16959,-6.92397 7.95322,0 15.62573,5.33333 15.62573,5.33333 l 7.11112,-14.03509 c 0,0 -9.91813,-7.29824 -23.95322,-7.29824 z"/>
		<path d="m 270.1418,199.02924 h 24.88889 V 230 h 17.59064 v -77.19298 h -17.59064 v 30.78362 H 270.1418 V 152.80702 H 252.55116 V 230 h 17.59064 z"/>
		<path d="M 372.98684,152.80702 H 328.8231 V 230 h 44.16374 v -15.4386 h -26.5731 v -15.53216 h 25.4503 v -15.4386 h -25.4503 v -15.34503 h 26.5731 z"/>
		<path d="M 388.09942,152.80702 V 230 h 17.59064 V 199.49708 L 429.26901,230 h 22.36258 l -26.5731,-31.90643 c 9.45029,-2.99416 15.81286,-10.76024 15.81286,-22.36258 0,-15.15789 -10.8538,-22.92397 -25.16959,-22.92397 z m 17.59064,34.24561 V 166.8421 h 2.05848 c 6.64328,0 14.5965,0.46784 14.5965,10.10527 0,9.63742 -7.95322,10.10526 -14.5965,10.10526 z"/>
		<path d="M 477.75879,152.80702 H 460.16815 V 230 h 44.16374 v -15.4386 h -26.5731 z"/>
		<path d="m 514.52046,191.35672 c 0,22.54971 16.09357,40.04679 38.92398,40.04679 22.17544,0 38.83041,-17.49708 38.83041,-40.04679 0,-22.5497 -17.40351,-39.95321 -38.83041,-39.95321 -21.23977,0 -38.92398,17.40351 -38.92398,39.95321 z m 18.99415,0 c 0,-11.50877 6.36257,-23.01754 19.92983,-23.01754 13.66082,0 19.83625,11.50877 19.83625,23.01754 0,11.50878 -5.80117,23.01755 -19.83625,23.01755 -14.40936,0 -19.92983,-11.50877 -19.92983,-23.01755 z"/>
		<path d="m 646.11258,214.09357 c -17.68421,0 -25.45029,-12.35088 -25.45029,-22.73685 0,-10.29239 7.76608,-22.64327 25.45029,-22.64327 8.98246,0 15.15789,4.77193 15.15789,4.77193 l 7.48538,-14.97076 c 0,0 -8.60818,-7.11111 -25.35672,-7.11111 -21.89474,0 -41.82456,17.96491 -41.82456,40.14035 0,22.08187 20.02339,39.85965 41.82456,39.85965 16.74854,0 25.35672,-7.11111 25.35672,-7.11111 l -7.48538,-14.97076 c 0,0 -6.17543,4.77193 -15.15789,4.77193 z"/>
		<path d="m 750.84649,230 -35.92983,-40.60819 31.06433,-36.58479 h -21.33333 l -26.47954,31.53216 V 152.80702 H 680.57748 V 230 h 17.59064 V 197.25146 L 726.61257,230 Z"/>
		<path d="m 807.40058,199.02924 h 24.88888 V 230 h 17.59065 v -77.19298 h -17.59065 v 30.78362 H 807.40058 V 152.80702 H 789.80993 V 230 h 17.59065 z"/>
		<path d="m 862.61992,191.35672 c 0,22.54971 16.09356,40.04679 38.92397,40.04679 22.17544,0 38.83041,-17.49708 38.83041,-40.04679 0,-22.5497 -17.40351,-39.95321 -38.83041,-39.95321 -21.23976,0 -38.92397,17.40351 -38.92397,39.95321 z m 18.99415,0 c 0,-11.50877 6.36257,-23.01754 19.92982,-23.01754 13.66082,0 19.83626,11.50877 19.83626,23.01754 0,11.50878 -5.80117,23.01755 -19.83626,23.01755 -14.40935,0 -19.92982,-11.50877 -19.92982,-23.01755 z"/>
		<path d="M 970.72663,152.80702 H 953.13598 V 230 h 44.16374 v -15.4386 h -26.57309 z"/>
		<path d="m 1074.7632,230 h 17.5906 l -6.924,-77.19298 h -18.7134 l -17.1228,44.53801 -17.1228,-44.53801 h -18.7135 L 1006.8334,230 h 17.5906 l 3.6491,-45.75439 h 0.4679 l 15.8128,45.28655 h 10.4796 l 15.8128,-45.28655 h 0.4679 z"/>
		<path d="m 1148.5643,152.80702 h -44.1637 V 230 h 44.1637 v -15.4386 h -26.5731 v -15.53216 h 25.4503 v -15.4386 h -25.4503 v -15.34503 h 26.5731 z"/>
		<path d="m 1192.1214,151.40351 c -12.4445,0 -25.1696,9.16959 -25.1696,23.57895 0,8.04678 5.4269,15.25146 14.69,19.83625 9.1696,4.5848 17.4036,7.11111 17.4036,12.72515 0,7.20468 -7.2983,7.57895 -11.1345,7.57895 -8.6082,0 -18.9006,-8.70176 -18.9006,-8.70176 l -8.7954,14.78363 c 0,0 10.9474,10.19883 29.0059,10.19883 15.0643,0 29.0994,-6.45614 29.0994,-24.88889 0,-10.10526 -9.4503,-17.40351 -18.0585,-21.05263 -8.7953,-3.74269 -16.0935,-6.83041 -16.0935,-11.13451 0,-4.21052 3.1813,-6.92397 9.1696,-6.92397 7.9532,0 15.6257,5.33333 15.6257,5.33333 l 7.1111,-14.03509 c 0,0 -9.9181,-7.29824 -23.9532,-7.29824 z"/>
	</g>
	<g aria-label="ARTHUR CONAN DOYLE">
		<path d="M 257.52029,332.10526 H 245.30976 L 221.94134,390 h 14.17544 l 4.2807,-11.57895 h 22.03509 L 266.71327,390 h 14.17544 z m 0.42105,34.73685 H 244.88871 L 251.34485,350 h 0.14035 z"/>
		<path d="M 288.0784,332.10526 V 390 h 13.19299 V 367.12281 L 318.9556,390 h 16.77193 L 315.7977,366.07018 c 7.08772,-2.24562 11.85965,-8.07018 11.85965,-16.77193 0,-11.36842 -8.14035,-17.19299 -18.87719,-17.19299 z m 13.19299,25.68421 v -15.15789 h 1.54386 c 4.98245,0 10.94736,0.35088 10.94736,7.57895 0,7.22807 -5.96491,7.57894 -10.94736,7.57894 z"/>
		<path d="m 336.98958,343.68421 h 13.75439 V 390 h 13.19298 v -46.31579 h 13.75439 v -11.57895 h -40.70176 z"/>
		<path d="m 400.63542,366.77193 h 18.66666 V 390 h 13.19298 v -57.89474 h -13.19298 v 23.08772 H 400.63542 V 332.10526 H 387.44243 V 390 h 13.19299 z"/>
		<path d="m 490.38761,332.10526 h -13.19298 v 33.47369 c 0,9.68421 -2.94737,12.49123 -9.40351,12.49123 -6.45614,0 -9.40351,-2.80702 -9.40351,-12.49123 v -33.47369 h -13.19298 v 37.33334 c 0,14.31579 7.85965,21.61403 22.59649,21.61403 14.73684,0 22.59649,-7.29824 22.59649,-21.61403 z"/>
		<path d="M 503.11678,332.10526 V 390 h 13.19298 V 367.12281 L 533.99397,390 h 16.77193 l -19.92982,-23.92982 c 7.08772,-2.24562 11.85965,-8.07018 11.85965,-16.77193 0,-11.36842 -8.14035,-17.19299 -18.8772,-17.19299 z m 13.19298,25.68421 v -15.15789 h 1.54386 c 4.98246,0 10.94737,0.35088 10.94737,7.57895 0,7.22807 -5.96491,7.57894 -10.94737,7.57894 z"/>
		<path d="m 611.22095,378.07018 c -13.26316,0 -19.08772,-9.26316 -19.08772,-17.05264 0,-7.71929 5.82456,-16.98245 19.08772,-16.98245 6.73684,0 11.36842,3.57895 11.36842,3.57895 l 5.61403,-11.22807 c 0,0 -6.45614,-5.33334 -19.01754,-5.33334 -16.42105,0 -31.36842,13.47369 -31.36842,30.10527 0,16.5614 15.01754,29.89473 31.36842,29.89473 12.5614,0 19.01754,-5.33333 19.01754,-5.33333 l -5.61403,-11.22807 c 0,0 -4.63158,3.57895 -11.36842,3.57895 z"/>
		<path d="m 635.72314,361.01754 c 0,16.91228 12.07017,30.03509 29.19298,30.03509 16.63158,0 29.12281,-13.12281 29.12281,-30.03509 0,-16.91228 -13.05263,-29.96491 -29.12281,-29.96491 -15.92982,0 -29.19298,13.05263 -29.19298,29.96491 z m 14.24561,0 c 0,-8.63157 4.77193,-17.26315 14.94737,-17.26315 10.24562,0 14.87719,8.63158 14.87719,17.26315 0,8.63158 -4.35087,17.26316 -14.87719,17.26316 -10.80702,0 -14.94737,-8.63158 -14.94737,-17.26316 z"/>
		<path d="m 718.05317,354.07018 h 0.14035 L 741.21107,390 h 13.19298 v -57.89474 h -13.19298 v 35.92983 h -0.14036 L 718.05317,332.10526 H 704.86019 V 390 h 13.19298 z"/>
		<path d="M 797.24069,332.10526 H 785.03016 L 761.66174,390 h 14.17544 l 4.2807,-11.57895 h 22.03509 L 806.43367,390 h 14.17544 z m 0.42105,34.73685 H 784.60911 L 791.06525,350 h 0.14035 z"/>
		<path d="m 840.99177,354.07018 h 0.14035 L 864.14966,390 h 13.19299 v -57.89474 h -13.19299 v 35.92983 h -0.14035 L 840.99177,332.10526 H 827.79879 V 390 h 13.19298 z"/>
		<path d="M 914.96438,332.10526 V 390 h 16.77193 c 15.92982,0 29.19298,-12.07018 29.19298,-28.98246 0,-16.8421 -13.33334,-28.91228 -29.19298,-28.91228 z m 13.19298,46.10527 v -34.31579 h 2.03509 c 9.82456,0 16.49122,7.50877 16.49122,17.19298 -0.0702,9.68421 -6.73684,17.12281 -16.49122,17.12281 z"/>
		<path d="m 969.17709,361.01754 c 0,16.91228 12.07017,30.03509 29.19298,30.03509 16.63153,0 29.12283,-13.12281 29.12283,-30.03509 0,-16.91228 -13.0527,-29.96491 -29.12283,-29.96491 -15.92982,0 -29.19298,13.05263 -29.19298,29.96491 z m 14.24561,0 c 0,-8.63157 4.77193,-17.26315 14.94737,-17.26315 10.24563,0 14.87723,8.63158 14.87723,17.26315 0,8.63158 -4.3509,17.26316 -14.87723,17.26316 -10.80702,0 -14.94737,-8.63158 -14.94737,-17.26316 z"/>
		<path d="m 1031.9984,332.10526 21.3333,31.92983 V 390 h 13.193 v -25.96491 l 21.3333,-31.92983 h -15.8596 l -12.0702,18.52632 -12.0702,-18.52632 z"/>
		<path d="m 1108.1793,332.10526 h -13.193 V 390 h 33.1228 v -11.57895 h -19.9298 z"/>
		<path d="m 1172.7199,332.10526 h -33.1228 V 390 h 33.1228 V 378.42105 H 1152.79 v -11.64912 h 19.0878 V 355.19298 H 1152.79 v -11.50877 h 19.9299 z"/>
	</g>
</svg>

<?xml version="1.0" encoding="utf-8"?>
<svg xmlns="http://www.w3.org/2000/svg" xmlns:svg="http://www.w3.org/2000/svg" version="1.1" viewBox="0 0 1400 440">
	<title>The titlepage for the Standard Ebooks edition of The Return of Sherlock Holmes, by Arthur Conan Doyle</title>
	<g>
		<path d="m 291.45394,68.245613 18.33918,0 0,61.754387 17.59065,0 0,-61.754387 18.33918,0 0,-15.438597 -54.26901,0 0,15.438597 z"/>
		<path d="m 374.64839,99.029239 24.88888,0 0,30.970761 17.59065,0 0,-77.192984 -17.59065,0 0,30.783626 -24.88888,0 0,-30.783626 -17.59065,0 0,77.192984 17.59065,0 0,-30.970761 z"/>
		<path d="m 477.49342,52.807016 -44.16374,0 0,77.192984 44.16374,0 0,-15.4386 -26.5731,0 0,-15.532161 25.45029,0 0,-15.438597 -25.45029,0 0,-15.345029 26.5731,0 0,-15.438597 z"/>
		<path d="m 523.19079,52.807016 0,77.192984 17.59064,0 0,-30.502925 L 564.36038,130 l 22.36258,0 -26.5731,-31.906433 c 9.45029,-2.994152 15.81286,-10.760234 15.81286,-22.362574 0,-15.157895 -10.8538,-22.923977 -25.16959,-22.923977 l -27.60234,0 z m 17.59064,34.245615 0,-20.210527 2.05848,0 c 6.64328,0 14.5965,0.467836 14.5965,10.105263 0,9.637428 -7.95322,10.105264 -14.5965,10.105264 l -2.05848,0 z"/>
		<path d="m 639.42324,52.807016 -44.16374,0 0,77.192984 44.16374,0 0,-15.4386 -26.5731,0 0,-15.532161 25.4503,0 0,-15.438597 -25.4503,0 0,-15.345029 26.5731,0 0,-15.438597 z"/>
		<path d="m 649.67034,68.245613 18.33918,0 0,61.754387 17.59065,0 0,-61.754387 18.33918,0 0,-15.438597 -54.26901,0 0,15.438597 z"/>
		<path d="m 774.59576,52.807016 -17.59065,0 0,44.63158 c 0,12.912284 -3.92982,16.654974 -12.53801,16.654974 -8.60819,0 -12.53801,-3.74269 -12.53801,-16.654974 l 0,-44.63158 -17.59064,0 0,49.777774 c 0,19.08772 10.47953,28.81872 30.12865,28.81872 19.64913,0 30.12866,-9.731 30.12866,-28.81872 l 0,-49.777774 z"/>
		<path d="m 789.90132,52.807016 0,77.192984 17.59064,0 0,-30.502925 L 831.07091,130 l 22.36257,0 -26.5731,-31.906433 c 9.45029,-2.994152 15.81287,-10.760234 15.81287,-22.362574 0,-15.157895 -10.8538,-22.923977 -25.16959,-22.923977 l -27.60234,0 z m 17.59064,34.245615 0,-20.210527 2.05848,0 c 6.64327,0 14.59649,0.467836 14.59649,10.105263 0,9.637428 -7.95322,10.105264 -14.59649,10.105264 l -2.05848,0 z"/>
		<path d="m 879.56072,82.093566 0.18713,0 L 910.43791,130 l 17.59064,0 0,-77.192984 -17.59064,0 0,47.906434 -0.18713,0 -30.69006,-47.906434 -17.59065,0 0,77.192984 17.59065,0 0,-47.906434 z"/>
		<path d="m 971.39547,91.356724 c 0,22.549706 16.09357,40.046786 38.92403,40.046786 22.1754,0 38.8304,-17.49708 38.8304,-40.046786 0,-22.549708 -17.4035,-39.953217 -38.8304,-39.953217 -21.23981,0 -38.92403,17.403509 -38.92403,39.953217 z m 18.99416,0 c 0,-11.508772 6.36257,-23.017544 19.92987,-23.017544 13.6608,0 19.8362,11.508772 19.8362,23.017544 0,11.508776 -5.8012,23.017546 -19.8362,23.017546 -14.40941,0 -19.92987,-11.50877 -19.92987,-23.017546 z"/>
		<path d="m 1106.5431,52.807016 -44.6316,0 0,77.192984 17.5907,0 0,-30.970761 24.9824,0 0,-15.438597 -24.9824,0 0,-15.345029 27.0409,0 0,-15.438597 z"/>
	</g>
	<g>
		<path d="m 213.13011,151.40351 c -12.44445,0 -25.16959,9.16959 -25.16959,23.57895 0,8.04678 5.4269,15.25146 14.69006,19.83625 9.16959,4.5848 17.40351,7.11111 17.40351,12.72515 0,7.20468 -7.29825,7.57895 -11.13451,7.57895 -8.60818,0 -18.90058,-8.70176 -18.90058,-8.70176 l -8.79532,14.78363 c 0,0 10.94736,10.19883 29.00584,10.19883 15.06433,0 29.09942,-6.45614 29.09942,-24.88889 0,-10.10526 -9.45029,-17.40351 -18.05848,-21.05263 -8.79532,-3.74269 -16.09357,-6.83041 -16.09357,-11.13451 0,-4.21052 3.18129,-6.92397 9.16959,-6.92397 7.95322,0 15.62573,5.33333 15.62573,5.33333 l 7.11112,-14.03509 c 0,0 -9.91813,-7.29824 -23.95322,-7.29824 z"/>
		<path d="m 270.1418,199.02924 24.88889,0 0,30.97076 17.59064,0 0,-77.19298 -17.59064,0 0,30.78362 -24.88889,0 0,-30.78362 -17.59064,0 0,77.19298 17.59064,0 0,-30.97076 z"/>
		<path d="m 372.98684,152.80702 -44.16374,0 0,77.19298 44.16374,0 0,-15.4386 -26.5731,0 0,-15.53216 25.4503,0 0,-15.4386 -25.4503,0 0,-15.34503 26.5731,0 0,-15.43859 z"/>
		<path d="m 388.09942,152.80702 0,77.19298 17.59064,0 0,-30.50292 23.57895,30.50292 22.36258,0 -26.5731,-31.90643 c 9.45029,-2.99416 15.81286,-10.76024 15.81286,-22.36258 0,-15.15789 -10.8538,-22.92397 -25.16959,-22.92397 l -27.60234,0 z m 17.59064,34.24561 0,-20.21053 2.05848,0 c 6.64328,0 14.5965,0.46784 14.5965,10.10527 0,9.63742 -7.95322,10.10526 -14.5965,10.10526 l -2.05848,0 z"/>
		<path d="m 477.75879,152.80702 -17.59064,0 0,77.19298 44.16374,0 0,-15.4386 -26.5731,0 0,-61.75438 z"/>
		<path d="m 514.52046,191.35672 c 0,22.54971 16.09357,40.04679 38.92398,40.04679 22.17544,0 38.83041,-17.49708 38.83041,-40.04679 0,-22.5497 -17.40351,-39.95321 -38.83041,-39.95321 -21.23977,0 -38.92398,17.40351 -38.92398,39.95321 z m 18.99415,0 c 0,-11.50877 6.36257,-23.01754 19.92983,-23.01754 13.66082,0 19.83625,11.50877 19.83625,23.01754 0,11.50878 -5.80117,23.01755 -19.83625,23.01755 -14.40936,0 -19.92983,-11.50877 -19.92983,-23.01755 z"/>
		<path d="m 646.11258,214.09357 c -17.68421,0 -25.45029,-12.35088 -25.45029,-22.73685 0,-10.29239 7.76608,-22.64327 25.45029,-22.64327 8.98246,0 15.15789,4.77193 15.15789,4.77193 l 7.48538,-14.97076 c 0,0 -8.60818,-7.11111 -25.35672,-7.11111 -21.89474,0 -41.82456,17.96491 -41.82456,40.14035 0,22.08187 20.02339,39.85965 41.82456,39.85965 16.74854,0 25.35672,-7.11111 25.35672,-7.11111 l -7.48538,-14.97076 c 0,0 -6.17543,4.77193 -15.15789,4.77193 z"/>
		<path d="m 750.84649,230 -35.92983,-40.60819 31.06433,-36.58479 -21.33333,0 -26.47954,31.53216 0,-31.53216 -17.59064,0 0,77.19298 17.59064,0 0,-32.74854 28.44445,32.74854 24.23392,0 z"/>
		<path d="m 807.40058,199.02924 24.88888,0 0,30.97076 17.59065,0 0,-77.19298 -17.59065,0 0,30.78362 -24.88888,0 0,-30.78362 -17.59065,0 0,77.19298 17.59065,0 0,-30.97076 z"/>
		<path d="m 862.61992,191.35672 c 0,22.54971 16.09356,40.04679 38.92397,40.04679 22.17544,0 38.83041,-17.49708 38.83041,-40.04679 0,-22.5497 -17.40351,-39.95321 -38.83041,-39.95321 -21.23976,0 -38.92397,17.40351 -38.92397,39.95321 z m 18.99415,0 c 0,-11.50877 6.36257,-23.01754 19.92982,-23.01754 13.66082,0 19.83626,11.50877 19.83626,23.01754 0,11.50878 -5.80117,23.01755 -19.83626,23.01755 -14.40935,0 -19.92982,-11.50877 -19.92982,-23.01755 z"/>
		<path d="m 970.72663,152.80702 -17.59065,0 0,77.19298 44.16374,0 0,-15.4386 -26.57309,0 0,-61.75438 z"/>
		<path d="m 1074.7632,230 17.5906,0 -6.924,-77.19298 -18.7134,0 -17.1228,44.53801 -17.1228,-44.53801 -18.7135,0 -6.9239,77.19298 17.5906,0 3.6491,-45.75439 0.4679,0 15.8128,45.28655 10.4796,0 15.8128,-45.28655 0.4679,0 3.6491,45.75439 z"/>
		<path d="m 1148.5643,152.80702 -44.1637,0 0,77.19298 44.1637,0 0,-15.4386 -26.5731,0 0,-15.53216 25.4503,0 0,-15.4386 -25.4503,0 0,-15.34503 26.5731,0 0,-15.43859 z"/>
		<path d="m 1192.1214,151.40351 c -12.4445,0 -25.1696,9.16959 -25.1696,23.57895 0,8.04678 5.4269,15.25146 14.69,19.83625 9.1696,4.5848 17.4036,7.11111 17.4036,12.72515 0,7.20468 -7.2983,7.57895 -11.1345,7.57895 -8.6082,0 -18.9006,-8.70176 -18.9006,-8.70176 l -8.7954,14.78363 c 0,0 10.9474,10.19883 29.0059,10.19883 15.0643,0 29.0994,-6.45614 29.0994,-24.88889 0,-10.10526 -9.4503,-17.40351 -18.0585,-21.05263 -8.7953,-3.74269 -16.0935,-6.83041 -16.0935,-11.13451 0,-4.21052 3.1813,-6.92397 9.1696,-6.92397 7.9532,0 15.6257,5.33333 15.6257,5.33333 l 7.1111,-14.03509 c 0,0 -9.9181,-7.29824 -23.9532,-7.29824 z"/>
	</g>
	<g>
		<path d="m 257.52029,332.10526 -12.21053,0 L 221.94134,390 l 14.17544,0 4.2807,-11.57895 22.03509,0 4.2807,11.57895 14.17544,0 -23.36842,-57.89474 z m 0.42105,34.73685 -13.05263,0 6.45614,-16.84211 0.14035,0 6.45614,16.84211 z"/>
		<path d="m 288.0784,332.10526 0,57.89474 13.19299,0 0,-22.87719 L 318.9556,390 l 16.77193,0 -19.92983,-23.92982 c 7.08772,-2.24562 11.85965,-8.07018 11.85965,-16.77193 0,-11.36842 -8.14035,-17.19299 -18.87719,-17.19299 l -20.70176,0 z m 13.19299,25.68421 0,-15.15789 1.54386,0 c 4.98245,0 10.94736,0.35088 10.94736,7.57895 0,7.22807 -5.96491,7.57894 -10.94736,7.57894 l -1.54386,0 z"/>
		<path d="m 336.98958,343.68421 13.75439,0 0,46.31579 13.19298,0 0,-46.31579 13.75439,0 0,-11.57895 -40.70176,0 0,11.57895 z"/>
		<path d="m 400.63542,366.77193 18.66666,0 0,23.22807 13.19298,0 0,-57.89474 -13.19298,0 0,23.08772 -18.66666,0 0,-23.08772 -13.19299,0 0,57.89474 13.19299,0 0,-23.22807 z"/>
		<path d="m 490.38761,332.10526 -13.19298,0 0,33.47369 c 0,9.68421 -2.94737,12.49123 -9.40351,12.49123 -6.45614,0 -9.40351,-2.80702 -9.40351,-12.49123 l 0,-33.47369 -13.19298,0 0,37.33334 c 0,14.31579 7.85965,21.61403 22.59649,21.61403 14.73684,0 22.59649,-7.29824 22.59649,-21.61403 l 0,-37.33334 z"/>
		<path d="m 503.11678,332.10526 0,57.89474 13.19298,0 0,-22.87719 17.68421,22.87719 16.77193,0 -19.92982,-23.92982 c 7.08772,-2.24562 11.85965,-8.07018 11.85965,-16.77193 0,-11.36842 -8.14035,-17.19299 -18.8772,-17.19299 l -20.70175,0 z m 13.19298,25.68421 0,-15.15789 1.54386,0 c 4.98246,0 10.94737,0.35088 10.94737,7.57895 0,7.22807 -5.96491,7.57894 -10.94737,7.57894 l -1.54386,0 z"/>
		<path d="m 611.22095,378.07018 c -13.26316,0 -19.08772,-9.26316 -19.08772,-17.05264 0,-7.71929 5.82456,-16.98245 19.08772,-16.98245 6.73684,0 11.36842,3.57895 11.36842,3.57895 l 5.61403,-11.22807 c 0,0 -6.45614,-5.33334 -19.01754,-5.33334 -16.42105,0 -31.36842,13.47369 -31.36842,30.10527 0,16.5614 15.01754,29.89473 31.36842,29.89473 12.5614,0 19.01754,-5.33333 19.01754,-5.33333 l -5.61403,-11.22807 c 0,0 -4.63158,3.57895 -11.36842,3.57895 z"/>
		<path d="m 635.72314,361.01754 c 0,16.91228 12.07017,30.03509 29.19298,30.03509 16.63158,0 29.12281,-13.12281 29.12281,-30.03509 0,-16.91228 -13.05263,-29.96491 -29.12281,-29.96491 -15.92982,0 -29.19298,13.05263 -29.19298,29.96491 z m 14.24561,0 c 0,-8.63157 4.77193,-17.26315 14.94737,-17.26315 10.24562,0 14.87719,8.63158 14.87719,17.26315 0,8.63158 -4.35087,17.26316 -14.87719,17.26316 -10.80702,0 -14.94737,-8.63158 -14.94737,-17.26316 z"/>
		<path d="m 718.05317,354.07018 0.14035,0 23.01755,35.92982 13.19298,0 0,-57.89474 -13.19298,0 0,35.92983 -0.14036,0 -23.01754,-35.92983 -13.19298,0 0,57.89474 13.19298,0 0,-35.92982 z"/>
		<path d="m 797.24069,332.10526 -12.21053,0 L 761.66174,390 l 14.17544,0 4.2807,-11.57895 22.03509,0 4.2807,11.57895 14.17544,0 -23.36842,-57.89474 z m 0.42105,34.73685 -13.05263,0 6.45614,-16.84211 0.14035,0 6.45614,16.84211 z"/>
		<path d="m 840.99177,354.07018 0.14035,0 23.01754,35.92982 13.19299,0 0,-57.89474 -13.19299,0 0,35.92983 -0.14035,0 -23.01754,-35.92983 -13.19298,0 0,57.89474 13.19298,0 0,-35.92982 z"/>
		<path d="m 914.96438,332.10526 0,57.89474 16.77193,0 c 15.92982,0 29.19298,-12.07018 29.19298,-28.98246 0,-16.8421 -13.33334,-28.91228 -29.19298,-28.91228 l -16.77193,0 z m 13.19298,46.10527 0,-34.31579 2.03509,0 c 9.82456,0 16.49122,7.50877 16.49122,17.19298 -0.0702,9.68421 -6.73684,17.12281 -16.49122,17.12281 l -2.03509,0 z"/>
		<path d="m 969.17709,361.01754 c 0,16.91228 12.07017,30.03509 29.19298,30.03509 16.63153,0 29.12283,-13.12281 29.12283,-30.03509 0,-16.91228 -13.0527,-29.96491 -29.12283,-29.96491 -15.92982,0 -29.19298,13.05263 -29.19298,29.96491 z m 14.24561,0 c 0,-8.63157 4.77193,-17.26315 14.94737,-17.26315 10.24563,0 14.87723,8.63158 14.87723,17.26315 0,8.63158 -4.3509,17.26316 -14.87723,17.26316 -10.80702,0 -14.94737,-8.63158 -14.94737,-17.26316 z"/>
		<path d="m 1031.9984,332.10526 21.3333,31.92983 0,25.96491 13.193,0 0,-25.96491 21.3333,-31.92983 -15.8596,0 -12.0702,18.52632 -12.0702,-18.52632 -15.8596,0 z"/>
		<path d="m 1108.1793,332.10526 -13.193,0 0,57.89474 33.1228,0 0,-11.57895 -19.9298,0 0,-46.31579 z"/>
		<path d="m 1172.7199,332.10526 -33.1228,0 0,57.89474 33.1228,0 0,-11.57895 -19.9299,0 0,-11.64912 19.0878,0 0,-11.57895 -19.0878,0 0,-11.50877 19.9299,0 0,-11.57895 z"/>
	</g>
</svg>
